24x24/apps/cryptfolder-indicator.svg

<svg height="24" width="24" xmlns="http://www.w3.org/2000/svg"><path d="m12 2c-3.324 0-6 2.676-6 6v2h2v-2c0-2.216 1.784-4 4-4s4 1.784 4 4v2h2v-2c0-3.324-2.676-6-6-6z" fill="#d2d2d2"/><rect fill="#ffb437" height="16" rx="1" transform="matrix(0 -1 -1 0 0 0)" width="12" x="-22" y="-20"/><path d="m12 2c-3.324 0-6 2.676-6 6v.5c0-3.324 2.676-6 6-6s6 2.676 6 6v-.5c0-3.324-2.676-6-6-6zm-7 8c-.554 0-1 .446-1 1v.5c0-.554.446-1 1-1h14c.554 0 1 .446 1 1v-.5c0-.554-.446-1-1-1z" fill="#f4f4f7" opacity=".2"/><path d="m12 4c-2.216 0-4 1.784-4 4v.5c0-2.216 1.784-4 4-4s4 1.784 4 4v-.5c0-2.216-1.784-4-4-4z" opacity=".2"/><path d="m4 12h16v7h-16z" fill="#fed96a"/><path d="m4 21v.5c0 .554.446 1 1 1h14c.554 0 1-.446 1-1v-.5c0 .554-.446 1-1 1h-14c-.554 0-1-.446-1-1z" opacity=".2"/></svg>

<svg height="24" width="24" xmlns="http://www.w3.org/2000/svg">
    <path d="M12 2C8.676 2 6 4.676 6 8v2h2V8c0-2.216 1.784-4 4-4s4 1.784 4 4v2h2V8c0-3.324-2.676-6-6-6z" fill="#d2d2d2"/>
    <rect fill="#ffb437" height="16" rx="1" transform="matrix(0 -1 -1 0 0 0)" width="12" x="-22" y="-20"/>
    <path d="M12 2C8.676 2 6 4.676 6 8v.5c0-3.324 2.676-6 6-6s6 2.676 6 6V8c0-3.324-2.676-6-6-6zm-7 8c-.554 0-1 .446-1 1v.5c0-.554.446-1 1-1h14c.554 0 1 .446 1 1V11c0-.554-.446-1-1-1z" fill="#f4f4f7" opacity=".2"/>
    <path d="M12 4C9.784 4 8 5.784 8 8v.5c0-2.216 1.784-4 4-4s4 1.784 4 4V8c0-2.216-1.784-4-4-4z" opacity=".2"/>
    <path d="M4 12h16v7H4z" fill="#fed96a"/>
    <path d="M4 21v.5c0 .554.446 1 1 1h14c.554 0 1-.446 1-1V21c0 .554-.446 1-1 1H5c-.554 0-1-.446-1-1z" opacity=".2"/>
</svg>
